other/editor.svg

<?xml version="1.0" encoding="UTF-8" standalone="no"?>
<svg
   xmlns:dc="http://purl.org/dc/elements/1.1/"
   xmlns:cc="http://creativecommons.org/ns#"
   xmlns:rdf="http://www.w3.org/1999/02/22-rdf-syntax-ns#"
   xmlns:svg="http://www.w3.org/2000/svg"
   xmlns="http://www.w3.org/2000/svg"
   xmlns:sodipodi="http://sodipodi.sourceforge.net/DTD/sodipodi-0.dtd"
   xmlns:inkscape="http://www.inkscape.org/namespaces/inkscape"
   width="48"
   height="48"
   viewBox="0 0 48 48"
   version="1.1"
   id="svg1503"
   sodipodi:docname="editor.svg"
   inkscape:version="0.92.3 (2405546, 2018-03-11)">
  <metadata
     id="metadata1509">
    <rdf:RDF>
      <cc:Work
         rdf:about="">
        <dc:format>image/svg+xml</dc:format>
        <dc:type
           rdf:resource="http://purl.org/dc/dcmitype/StillImage" />
        <dc:title></dc:title>
      </cc:Work>
    </rdf:RDF>
  </metadata>
  <defs
     id="defs1507" />
  <sodipodi:namedview
     pagecolor="#ffffff"
     bordercolor="#666666"
     borderopacity="1"
     objecttolerance="10"
     gridtolerance="10"
     guidetolerance="10"
     inkscape:pageopacity="0"
     inkscape:pageshadow="2"
     inkscape:window-width="2560"
     inkscape:window-height="1385"
     id="namedview1505"
     showgrid="false"
     inkscape:pagecheckerboard="true"
     inkscape:zoom="19.666667"
     inkscape:cx="20.461927"
     inkscape:cy="26.561186"
     inkscape:window-x="1920"
     inkscape:window-y="27"
     inkscape:window-maximized="1"
     inkscape:current-layer="svg1503" />
  <path
     style="fill:#ffffff"
     d="M 10 4 C 8.892 4 8 4.892 8 6 L 8 42 C 8 43.108 8.892 44 10 44 L 38 44 C 39.108 44 40 43.108 40 42 L 40 6 C 40 4.892 39.108 4 38 4 L 10 4 z M 12.203125 6.5585938 L 36 6.5585938 C 36.788746 6.5585938 37.423828 7.1936761 37.423828 7.9824219 C 37.423828 8.7711676 36.788746 9.40625 36 9.40625 L 12.203125 9.40625 C 11.414379 9.40625 10.779297 8.7711676 10.779297 7.9824219 C 10.779297 7.1936761 11.414379 6.5585938 12.203125 6.5585938 z M 12.203125 11.128906 L 36 11.128906 C 36.788746 11.128906 37.423828 11.763989 37.423828 12.552734 C 37.423828 13.34148 36.788746 13.976566 36 13.976562 L 12.203125 13.976562 C 11.414379 13.976562 10.779297 13.34148 10.779297 12.552734 C 10.779297 11.763989 11.414379 11.128906 12.203125 11.128906 z M 12.203125 15.697266 L 36 15.697266 C 36.788746 15.697266 37.423828 16.332348 37.423828 17.121094 C 37.423828 17.90984 36.788746 18.544922 36 18.544922 L 12.203125 18.544922 C 11.414379 18.544922 10.779297 17.90984 10.779297 17.121094 C 10.779297 16.332348 11.414379 15.697266 12.203125 15.697266 z M 12.203125 20.265625 L 36 20.265625 C 36.788746 20.265625 37.423828 20.900707 37.423828 21.689453 C 37.423828 22.478199 36.788746 23.113281 36 23.113281 L 12.203125 23.113281 C 11.414379 23.113281 10.779297 22.478199 10.779297 21.689453 C 10.779297 20.900707 11.414379 20.265625 12.203125 20.265625 z M 12.203125 24.835938 L 36 24.835938 C 36.788746 24.835938 37.423828 25.47102 37.423828 26.259766 C 37.423828 27.048511 36.788746 27.683594 36 27.683594 L 12.203125 27.683594 C 11.414379 27.683594 10.779297 27.048511 10.779297 26.259766 C 10.779297 25.47102 11.414379 24.835938 12.203125 24.835938 z M 12.203125 29.404297 L 36 29.404297 C 36.788746 29.404297 37.423828 30.039379 37.423828 30.828125 C 37.423828 31.616871 36.788746 32.251953 36 32.251953 L 12.203125 32.251953 C 11.414379 32.251953 10.779297 31.616871 10.779297 30.828125 C 10.779297 30.039379 11.414379 29.404297 12.203125 29.404297 z M 12.203125 33.972656 L 36 33.972656 C 36.788746 33.972656 37.423828 34.607739 37.423828 35.396484 C 37.423828 36.18523 36.788746 36.820312 36 36.820312 L 12.203125 36.820312 C 11.414379 36.820312 10.779297 36.18523 10.779297 35.396484 C 10.779297 34.607739 11.414379 33.972656 12.203125 33.972656 z M 12.203125 38.542969 L 36 38.542969 C 36.788746 38.542969 37.423828 39.178051 37.423828 39.966797 C 37.423828 40.755543 36.788746 41.390625 36 41.390625 L 12.203125 41.390625 C 11.414379 41.390625 10.779297 40.755543 10.779297 39.966797 C 10.779297 39.178051 11.414379 38.542969 12.203125 38.542969 z "
     id="rect1501" />
</svg>

<?xml version="1.0" encoding="UTF-8"?>
<svg version="1.1" viewBox="0 0 48 48" xmlns="http://www.w3.org/2000/svg">
    <path d="m10 4c-1.108 0-2 0.892-2 2v36c0 1.108 0.892 2 2 2h28c1.108 0 2-0.892 2-2v-36c0-1.108-0.892-2-2-2h-28zm2.2031 2.5586h23.797c0.78875 0 1.4238 0.63508 1.4238 1.4238 0 0.78875-0.63508 1.4238-1.4238 1.4238h-23.797c-0.78875 0-1.4238-0.63508-1.4238-1.4238 0-0.78875 0.63508-1.4238 1.4238-1.4238zm0 4.5703h23.797c0.78875 0 1.4238 0.63508 1.4238 1.4238 0 0.78875-0.63508 1.4238-1.4238 1.4238h-23.797c-0.78875 0-1.4238-0.63508-1.4238-1.4238 0-0.78874 0.63508-1.4238 1.4238-1.4238zm0 4.5684h23.797c0.78875 0 1.4238 0.63508 1.4238 1.4238s-0.63508 1.4238-1.4238 1.4238h-23.797c-0.78875 0-1.4238-0.63508-1.4238-1.4238s0.63508-1.4238 1.4238-1.4238zm0 4.5684h23.797c0.78875 0 1.4238 0.63508 1.4238 1.4238s-0.63508 1.4238-1.4238 1.4238h-23.797c-0.78875 0-1.4238-0.63508-1.4238-1.4238s0.63508-1.4238 1.4238-1.4238zm0 4.5703h23.797c0.78875 0 1.4238 0.63508 1.4238 1.4238 0 0.78874-0.63508 1.4238-1.4238 1.4238h-23.797c-0.78875 0-1.4238-0.63508-1.4238-1.4238 0-0.78875 0.63508-1.4238 1.4238-1.4238zm0 4.5684h23.797c0.78875 0 1.4238 0.63508 1.4238 1.4238s-0.63508 1.4238-1.4238 1.4238h-23.797c-0.78875 0-1.4238-0.63508-1.4238-1.4238s0.63508-1.4238 1.4238-1.4238zm0 4.5684h23.797c0.78875 0 1.4238 0.63508 1.4238 1.4238 0 0.78875-0.63508 1.4238-1.4238 1.4238h-23.797c-0.78875 0-1.4238-0.63508-1.4238-1.4238 0-0.78874 0.63508-1.4238 1.4238-1.4238zm0 4.5703h23.797c0.78875 0 1.4238 0.63508 1.4238 1.4238s-0.63508 1.4238-1.4238 1.4238h-23.797c-0.78875 0-1.4238-0.63508-1.4238-1.4238s0.63508-1.4238 1.4238-1.4238z" fill="#fff"/>
</svg>
